src/assets/flags/cm.svg

<?xml version="1.0" encoding="UTF-8"?>
<svg xmlns="http://www.w3.org/2000/svg" xmlns:xlink="http://www.w3.org/1999/xlink" width="25px" height="px" viewBox="0 0 25 19" version="1.1">
<g id="surface1">
<path style=" stroke:none;fill-rule:nonzero;fill:rgb(0%,47.843137%,36.862746%);fill-opacity:1;" d="M 0 0 L 8.332031 0 L 8.332031 19 L 0 19 Z M 0 0 "/>
<path style=" stroke:none;fill-rule:nonzero;fill:rgb(80.784315%,6.666667%,14.901961%);fill-opacity:1;" d="M 8.332031 0 L 16.667969 0 L 16.667969 19 L 8.332031 19 Z M 8.332031 0 "/>
<path style=" stroke:none;fill-rule:nonzero;fill:rgb(98.823529%,81.960785%,8.627451%);fill-opacity:1;" d="M 16.667969 0 L 25 0 L 25 19 L 16.667969 19 Z M 16.667969 0 "/>
<path style=" stroke:none;fill-rule:nonzero;fill:rgb(98.823529%,81.960785%,8.627451%);fill-opacity:1;" d="M 12.5 7.25 L 11.804688 9.386719 L 12.859375 9.753906 Z M 12.5 7.25 "/>
<path style=" stroke:none;fill-rule:nonzero;fill:rgb(98.823529%,81.960785%,8.627451%);fill-opacity:1;" d="M 12.5 7.25 L 13.195312 9.386719 L 12.140625 9.753906 Z M 12.5 7.25 "/>
<path style=" stroke:none;fill-rule:nonzero;fill:rgb(98.823529%,81.960785%,8.627451%);fill-opacity:1;" d="M 14.613281 8.804688 L 12.390625 8.796875 L 12.375 9.925781 Z M 14.613281 8.804688 "/>
<path style=" stroke:none;fill-rule:nonzero;fill:rgb(98.823529%,81.960785%,8.627451%);fill-opacity:1;" d="M 14.613281 8.804688 L 12.820312 10.132812 L 12.152344 9.230469 Z M 14.613281 8.804688 "/>
<path style=" stroke:none;fill-rule:nonzero;fill:rgb(98.823529%,81.960785%,8.627451%);fill-opacity:1;" d="M 13.804688 11.320312 L 13.128906 9.175781 L 12.0625 9.511719 Z M 13.804688 11.320312 "/>
<path style=" stroke:none;fill-rule:nonzero;fill:rgb(98.823529%,81.960785%,8.627451%);fill-opacity:1;" d="M 13.804688 11.320312 L 12.003906 10.003906 L 12.644531 9.078125 Z M 13.804688 11.320312 "/>
<path style=" stroke:none;fill-rule:nonzero;fill:rgb(98.823529%,81.960785%,8.627451%);fill-opacity:1;" d="M 11.195312 11.320312 L 12.996094 10.003906 L 12.355469 9.078125 Z M 11.195312 11.320312 "/>
<path style=" stroke:none;fill-rule:nonzero;fill:rgb(98.823529%,81.960785%,8.627451%);fill-opacity:1;" d="M 11.195312 11.320312 L 11.871094 9.175781 L 12.9375 9.511719 Z M 11.195312 11.320312 "/>
<path style=" stroke:none;fill-rule:nonzero;fill:rgb(98.823529%,81.960785%,8.627451%);fill-opacity:1;" d="M 10.386719 8.804688 L 12.179688 10.132812 L 12.847656 9.230469 Z M 10.386719 8.804688 "/>
<path style=" stroke:none;fill-rule:nonzero;fill:rgb(98.823529%,81.960785%,8.627451%);fill-opacity:1;" d="M 10.386719 8.804688 L 12.609375 8.796875 L 12.625 9.925781 Z M 10.386719 8.804688 "/>
</g>
</svg>

<svg xmlns="http://www.w3.org/2000/svg" width="25" height="px" viewBox="0 0 25 19"><path d="M0 0h8.332v19H0Zm0 0" style="stroke:none;fill-rule:nonzero;fill:#007a5e;fill-opacity:1"/><path d="M8.332 0h8.336v19H8.332Zm0 0" style="stroke:none;fill-rule:nonzero;fill:#ce1126;fill-opacity:1"/><path d="M16.668 0H25v19h-8.332ZM12.5 7.25l-.695 2.137 1.054.367Zm0 0" style="stroke:none;fill-rule:nonzero;fill:#fcd116;fill-opacity:1"/><path d="m12.5 7.25.695 2.137-1.054.367Zm0 0" style="stroke:none;fill-rule:nonzero;fill:#fcd116;fill-opacity:1"/><path d="m14.613 8.805-2.222-.008-.016 1.129Zm0 0" style="stroke:none;fill-rule:nonzero;fill:#fcd116;fill-opacity:1"/><path d="m14.613 8.805-1.793 1.328-.668-.903Zm0 0" style="stroke:none;fill-rule:nonzero;fill:#fcd116;fill-opacity:1"/><path d="m13.805 11.32-.676-2.144-1.066.336Zm0 0" style="stroke:none;fill-rule:nonzero;fill:#fcd116;fill-opacity:1"/><path d="m13.805 11.32-1.801-1.316.64-.926Zm0 0" style="stroke:none;fill-rule:nonzero;fill:#fcd116;fill-opacity:1"/><path d="m11.195 11.32 1.801-1.316-.64-.926Zm0 0" style="stroke:none;fill-rule:nonzero;fill:#fcd116;fill-opacity:1"/><path d="m11.195 11.32.676-2.144 1.066.336Zm0 0" style="stroke:none;fill-rule:nonzero;fill:#fcd116;fill-opacity:1"/><path d="m10.387 8.805 1.793 1.328.668-.903Zm0 0" style="stroke:none;fill-rule:nonzero;fill:#fcd116;fill-opacity:1"/><path d="m10.387 8.805 2.222-.008.016 1.129Zm0 0" style="stroke:none;fill-rule:nonzero;fill:#fcd116;fill-opacity:1"/></svg>
